packages/icons/raw/imported/GenericAmountNumber.svg

<svg width="32" height="32" viewBox="0 0 32 32" fill="none" xmlns="http://www.w3.org/2000/svg">
<path d="M12.4142 22H19.4702V20.304H15.2302L15.2142 20.256L17.5342 17.84C18.9262 16.4 19.3582 15.36 19.3582 14.144C19.3582 12.128 17.7262 10.912 15.9182 10.912C14.1262 10.912 12.9902 11.808 12.3662 12.992L13.6942 13.936C14.1902 13.072 14.9102 12.64 15.7902 12.64C16.7822 12.64 17.4702 13.376 17.4702 14.352C17.4702 15.296 16.8142 16.096 15.9182 17.04L12.3822 20.768L12.4142 22Z" fill="black"/>
</svg>

<svg width="32" height="32" fill="none" xmlns="http://www.w3.org/2000/svg"><path d="M12.414 22h7.056v-1.696h-4.24l-.016-.048 2.32-2.416c1.392-1.44 1.824-2.48 1.824-3.696 0-2.016-1.632-3.232-3.44-3.232-1.792 0-2.928.896-3.552 2.08l1.328.944c.496-.864 1.216-1.296 2.096-1.296.992 0 1.68.736 1.68 1.712 0 .944-.656 1.744-1.552 2.688l-3.536 3.728.032 1.232Z" fill="#000"/></svg>
